azure-icons/command-1021-Undo.svg

<svg xmlns="http://www.w3.org/2000/svg" viewBox="0 0 12 15.9"><path d="M5 5H0V0h1v3.3l.8-.9.8-.7.8-.7.9-.5a1.7 1.7 0 011-.3L6.5 0l1.4.2 1.4.6 1.1.8a5 5 0 01.8 1.2 5.2 5.2 0 01.6 1.3 5.9 5.9 0 01.2 1.4 7.8 7.8 0 01-.4 2.1 6.6 6.6 0 01-1.2 1.7l-6.5 6.6-.8-.8 6.6-6.5a4.2 4.2 0 00.9-1.4 3.5 3.5 0 00.4-1.7 3.3 3.3 0 00-.4-1.7 2.8 2.8 0 00-1-1.4 2.8 2.8 0 00-1.4-1A3.3 3.3 0 006.5 1a3.3 3.3 0 00-1.5.3L3.8 2l-1 .9L1.7 4H5z"/></svg>

<svg xmlns="http://www.w3.org/2000/svg" viewBox="0 0 12 15.9"><title>Asset 74</title><path d="M5,5H0V0H1V3.3l.8-.9.8-.7L3.4,1,4.3.5a1.7,1.7,0,0,1,1-.3L6.5,0,7.9.2,9.3.8l1.1.8a5,5,0,0,1,.8,1.2,5.2,5.2,0,0,1,.6,1.3A5.9,5.9,0,0,1,12,5.5a7.8,7.8,0,0,1-.4,2.1,6.6,6.6,0,0,1-1.2,1.7L3.9,15.9l-.8-.8L9.7,8.6a4.2,4.2,0,0,0,.9-1.4A3.5,3.5,0,0,0,11,5.5a3.3,3.3,0,0,0-.4-1.7,2.8,2.8,0,0,0-1-1.4,2.8,2.8,0,0,0-1.4-1A3.3,3.3,0,0,0,6.5,1,3.3,3.3,0,0,0,5,1.3L3.8,2l-1,.9L1.7,4H5Z"/></svg>
